X: 1
T: The Humours Of Bandon
R: jig
M: 6/8
L: 1/8
K: Gmaj
|: D2 G GFG | A2 G FGA | B2 G GFG | Ade f2 e |
d2 e c2 A | BAG FGA | BdB cAF |1 G2 F E2 ^D :|2 ~G3 G2 B ||
| d2 g gfg | a2 g fga | g2 f d2 e | fed c2 e |
d2 c Bcd | c2 B G2 A | BAG GFG | A2 G F2 E |
D2 G GFG | A2 G FGA | B2 G GFG | Ade f2 e |
d2 e c2 A | BAG FGA | BdB cAF | ~G3 G2 E |


Tune 2193	Setting 15564

